calendar-lock.svg

<svg fill="currentColor" viewBox="0 0 24 24"><path d="M12 21H5c-1.1 0-2-.9-2-2V5c0-1.1.9-2 2-2h1V1h2v2h8V1h2v2h1c1.1 0 2 .9 2 2v7c-.6-.4-1.3-.8-2-.9V8H5v11h7zm10-2.7v3.5c0 .6-.6 1.2-1.3 1.2h-5.5c-.6 0-1.2-.6-1.2-1.3v-3.5c0-.6.6-1.2 1.2-1.2v-1.5c0-1.4 1.4-2.5 2.8-2.5s2.8 1.1 2.8 2.5V17c.6 0 1.2.6 1.2 1.3m-2.5-2.8c0-.8-.7-1.3-1.5-1.3s-1.5.5-1.5 1.3V17h3z"/></svg>

<svg  viewBox="0 0 24 24" fill="currentColor"><path  d="M12 21H5C3.9 21 3 20.1 3 19V5C3 3.9 3.9 3 5 3H6V1H8V3H16V1H18V3H19C20.1 3 21 3.9 21 5V12C20.4 11.6 19.7 11.2 19 11.1V8H5V19H12V21M22 18.3V21.8C22 22.4 21.4 23 20.7 23H15.2C14.6 23 14 22.4 14 21.7V18.2C14 17.6 14.6 17 15.2 17V15.5C15.2 14.1 16.6 13 18 13S20.8 14.1 20.8 15.5V17C21.4 17 22 17.6 22 18.3M19.5 15.5C19.5 14.7 18.8 14.2 18 14.2S16.5 14.7 16.5 15.5V17H19.5V15.5Z"/></svg>
